X: 11522
T: Eddie Moloney's
R: jig
M: 6/8
K: Dmixolydian
|:FDD Add|ded cAG|FDD Azd|cAG AGE|
FDD Add|ded cAg|(3fgaf ged|cAG AGE:|
|:Add fzA|daf ged|Add fza|ged cAG|
Add ~f2A|daf ~g3|(3fgaf ged|cAG AGE:|

